src/icons/private-key.svg

<svg viewBox="0 0 24 24" fill="none" xmlns="http://www.w3.org/2000/svg">
<path d="M6.48921 2C5.22556 2 4.20117 3.17564 4.20117 4.62588V19.3741C4.20117 20.8244 5.22556 22 6.48921 22H15.9131C17.1768 22 18.2012 20.8244 18.2012 19.3741V10.95C18.0396 10.9828 17.8724 11 17.7012 11C17.4774 11 17.2606 10.9706 17.0542 10.9155V19.3741C17.0542 20.096 16.5443 20.6811 15.9154 20.6811H6.49146C5.8625 20.6811 5.35262 20.096 5.35262 19.3741V4.62588C5.35262 3.90405 5.8625 3.31889 6.49146 3.31889H15.9154C16.5443 3.31889 17.0542 3.90405 17.0542 4.62588V6.08452C17.2606 6.02939 17.4774 6 17.7012 6C17.8724 6 18.0396 6.01722 18.2012 6.05001V4.62588C18.2012 3.17564 17.1768 2 15.9131 2H6.48921Z" fill="currentColor"/>
<path fill-rule="evenodd" clip-rule="evenodd" d="M14.6109 13.9148C16.4405 14.7631 18.6828 14.4339 20.1921 12.9273C22.1235 10.9994 22.1235 7.87374 20.1921 5.94589C18.2608 4.01804 15.1295 4.01804 13.1982 5.94589C11.6719 7.46946 11.3518 9.74115 12.238 11.5785L7.64062 16.0317V18.5H10.1133L10.1133 16.8545H11.7138V15.209H13.4103L14.6109 13.9148ZM18.8551 9.78027C18.1793 10.4548 17.0838 10.4548 16.4081 9.78027C15.7324 9.10577 15.7324 8.01221 16.4081 7.33771C17.0838 6.66322 18.1793 6.66322 18.8551 7.33771C19.5308 8.01221 19.5308 9.10577 18.8551 9.78027Z" fill="currentColor"/>
</svg>

<svg viewBox="0 0 24 24" fill="none" xmlns="http://www.w3.org/2000/svg"><path d="M6.49 2C5.225 2 4.2 3.176 4.2 4.626v14.748C4.201 20.824 5.226 22 6.49 22h9.424c1.264 0 2.288-1.176 2.288-2.626V10.95a2.512 2.512 0 0 1-1.147-.034v8.458c0 .722-.51 1.307-1.139 1.307H6.491c-.628 0-1.138-.585-1.138-1.307V4.626c0-.722.51-1.307 1.138-1.307h9.424c.63 0 1.14.585 1.14 1.307v1.459A2.504 2.504 0 0 1 18.2 6.05V4.626c0-1.45-1.024-2.626-2.288-2.626H6.49z" fill="currentColor"/><path fill-rule="evenodd" clip-rule="evenodd" d="M14.61 13.915c1.83.848 4.073.519 5.582-.988a4.93 4.93 0 0 0 0-6.981 4.952 4.952 0 0 0-6.994 0 4.932 4.932 0 0 0-.96 5.633l-4.597 4.453V18.5h2.472v-1.645h1.6v-1.646h1.697l1.2-1.294zm4.245-4.135a1.732 1.732 0 0 1-2.447 0 1.725 1.725 0 0 1 0-2.442 1.733 1.733 0 0 1 2.447 0 1.725 1.725 0 0 1 0 2.442z" fill="currentColor"/></svg>
